X: 39127
T: Sweet Flowers Of Milltown, The
R: barndance
M: 4/4
K: Gmajor
|:D|G2GB AGED|G3B d2zd|efge dcBA|GAFA EADE|
G2GB AGED|G3B d2zd|efge dcBA|A3G G3:|
e|~g3e a3f|gage d3d|efge dcBA|GAFA EADe|
~g3e a3f|gage d3d|efge dcBA|A3G G3e|
~g3e a3f|gage d3d|efge dcBA|GAFA EADE|
G2GB AGED|G3B d2zd|efge dcBA|A3G G3||

